assets/Auto rickshaw/Flat/auto_rickshaw_flat.svg

<svg width="32" height="32" viewBox="0 0 32 32" fill="none" xmlns="http://www.w3.org/2000/svg">
<path d="M16.46 19H17.99L18.99 25L14.99 24V20.47C14.99 19.66 15.65 19 16.46 19ZM22.46 19H24.99L23.99 24L20.99 25V20.47C20.99 19.66 21.65 19 22.46 19Z" fill="#433B6B"/>
<path d="M19 8H18V17H19V8Z" fill="#D3D3D3"/>
<path d="M12.99 24V15.9H7.26944L6.99 16L6.68999 16.9C6.24 18.24 6.35 19.71 6.97999 20.98L7.27314 21.5663C7.02195 21.5227 6.76362 21.5 6.5 21.5C4.07 21.5 2.09 23.42 2 25.83C2 25.92 2.07 26 2.17 26H9.49L9.99 27H21.02H21.99H28.99V22H29V16H24V21.5936C22.9638 22.12 22.1172 22.965 21.5887 24H18.99V16H17.99V24H12.99Z" fill="#008463"/>
<path d="M28.99 23C28.44 23 27.99 22.55 27.99 22V20.31C27.99 20.14 28.13 20 28.3 20H28.99V23Z" fill="#F8312F"/>
<path d="M29.99 26.5C29.99 28.433 28.423 30 26.49 30C24.557 30 22.99 28.433 22.99 26.5C22.99 24.567 24.557 23 26.49 23C28.423 23 29.99 24.567 29.99 26.5ZM9.96456 26H3.03544C3.01209 26.1633 3 26.3302 3 26.5C3 28.433 4.567 30 6.5 30C8.433 30 10 28.433 10 26.5C10 26.3302 9.98791 26.1633 9.96456 26Z" fill="#321B41"/>
<path fill-rule="evenodd" clip-rule="evenodd" d="M28 26.5C28 27.3284 27.3284 28 26.5 28C25.6716 28 25 27.3284 25 26.5C25 25.6716 25.6716 25 26.5 25C27.3284 25 28 25.6716 28 26.5ZM7.91465 26H5.08535C5.03008 26.1564 5 26.3247 5 26.5C5 27.3284 5.67157 28 6.5 28C7.32843 28 8 27.3284 8 26.5C8 26.3247 7.96992 26.1564 7.91465 26Z" fill="#E6E6E6"/>
<path d="M8.49999 23.02H6.98999V20.01H8.49999C9.32999 20.01 10.01 20.68 10.01 21.52C9.99999 22.34 9.32999 23.02 8.49999 23.02Z" fill="#00D26A"/>
<path d="M9.91998 6H24.06C26.78 6 28.99 8.21 28.98 10.93V16H23.98V8H12.98V16H6.97998L7.31373 15L9.49998 12L9.64998 8H7.49998C7.40998 8 7.34998 7.91 7.37998 7.83C7.73998 6.74 8.76998 6 9.91998 6ZM6.98999 20.01V23.02C6.43999 23.02 5.98999 22.57 5.98999 22.02V21.01C5.98999 20.46 6.43999 20.01 6.98999 20.01Z" fill="#F9C23C"/>
<path d="M9.66002 8L7.33002 15H8.67002C9.96002 15 11 13.96 11 12.67V8H9.66002Z" fill="#26C9FC"/>
</svg>

<svg xmlns="http://www.w3.org/2000/svg" width="32" height="32" fill="none"><path fill="#433B6B" d="M16.46 19h1.53l1 6-4-1v-3.53c0-.81.66-1.47 1.47-1.47Zm6 0h2.53l-1 5-3 1v-4.53c0-.81.66-1.47 1.47-1.47Z"/><path fill="#D3D3D3" d="M19 8h-1v9h1V8Z"/><path fill="#008463" d="M12.99 24v-8.1H7.27l-.28.1-.3.9c-.45 1.34-.34 2.81.29 4.08l.293.586A4.5 4.5 0 0 0 2 25.83c0 .09.07.17.17.17h7.32l.5 1h19v-5H29v-6h-5v5.594A5.518 5.518 0 0 0 21.589 24H18.99v-8h-1v8h-5Z"/><path fill="#F8312F" d="M28.99 23c-.55 0-1-.45-1-1v-1.69c0-.17.14-.31.31-.31h.69v3Z"/><path fill="#321B41" d="M29.99 26.5a3.5 3.5 0 1 1-7 0 3.5 3.5 0 0 1 7 0ZM9.965 26h-6.93a3.5 3.5 0 1 0 6.93 0Z"/><path fill="#E6E6E6" fill-rule="evenodd" d="M28 26.5a1.5 1.5 0 1 1-3 0 1.5 1.5 0 0 1 3 0ZM7.915 26h-2.83a1.5 1.5 0 1 0 2.83 0Z" clip-rule="evenodd"/><path fill="#00D26A" d="M8.5 23.02H6.99v-3.01H8.5c.83 0 1.51.67 1.51 1.51-.01.82-.68 1.5-1.51 1.5Z"/><path fill="#F9C23C" d="M9.92 6h14.14c2.72 0 4.93 2.21 4.92 4.93V16h-5V8h-11v8h-6l.334-1L9.5 12l.15-4H7.5c-.09 0-.15-.09-.12-.17A2.68 2.68 0 0 1 9.92 6ZM6.99 20.01v3.01c-.55 0-1-.45-1-1v-1.01c0-.55.45-1 1-1Z"/><path fill="#26C9FC" d="m9.66 8-2.33 7h1.34C9.96 15 11 13.96 11 12.67V8H9.66Z"/></svg>
